X:1
T:Two Fountains Reflect the Moonlight
T:The Moon Reflected in Er-Quan
C:Hua Yen-Chun
M:4/4
S:Chang Jui, Erhu
Z:John Walsh 09/99 (abcusers 2002-12-8)
L:1/4
Q:1/4=140
K:DMix
B/A/B/ | G2 G F/ Hz/ | E4- | E4 | E2 JEF | D2 (DE) | F4- || F2 .F .A | B2 A2 | BA Bd |
JA3 F | A2 AF | E2 B2 | (AB) (DE) | F4- | F4 | E>F Ad | BE FA | D4- | D4 ||
d2 (Bd | Jf2) fe | d3 JB | d>e ff | e2 (d>B) | JBd ef | A4- | A4 |
a2 fa | b>a bd' | Ja3 f | Ja3d' | b2 b2 | ab aa | af2A | (a2 f) a |
e>f ed | Bd dB | Jd4- | d3 z/ e/ | Jfa d>e | fa f b | a4- | a4 ||
.Az .dz | BA Bd | (A3 F) | A3 F | EF Ad | BE FA | D4- | D4 |
d2 Bd | f2 fe | d3 B | Jd>e ff | e2 d2 | Bd ef | A4- | A4 ||
.Az .az | fa fa | b4 | d'2 d'2 | (a<f) {a}fa | ba d'b | (a3 f) | Ja3 d' | b2 b2 | ab aa |
(a<f)-f d | a2 fa | ef ed | "rall"Bd dB | (Jd3 B)- | Jd3 e | Jfa d2 | f>a{g}ab | a4- | a4 ||
A2 AB | AA FA | "tr"B4- | B4- | {A}B4- | {A}B4 | b2 d'2 | ba bd' | Ja3 f | Ja3 d' | b2 b2 |
ab aa | (a f2) d | a2 (af) | ef ed | Bd dB | d3 B | d2-d>e | Jfa d2 | f>a gb | a4- | a4 |]
